!!!COM: Bach, Johann Sebastian
!!!CDT: 1685/3//-1750/7/28/
!!!OTL@@DE: Jesu, meiner Seelen Wonne
!!!AGN: 4-Part Chorale
!!!SCT: BH 350
!!!SCT: BWV 360
**harm	**root	**kern	**kern	**kern	**kern
!	!	!bass	!tenor	!alto	!soprno
*	*Iorgan	*Iorgan	*Iorgan	*Iorgan	*Iorgan
*M4/4	*M4/4	*M4/4	*M4/4	*M4/4	*M4/4
*met(c)	*met(c)	*met(c)	*met(c)	*met(c)	*met(c)
*MM60	*MM60	*MM60	*MM60	*MM60	*MM60
*k[b-]	*k[b-]	*k[b-]	*k[b-]	*k[b-]	*k[b-]
*F:	*F:	*F:	*F:	*F:	*F:
*>[A,A,B]	*>[A,A,B]	*>[A,A,B]	*>[A,A,B]	*>[A,A,B]	*>[A,A,B]
*>A	*>A	*>A	*>A	*>A	*>A
=1-	=1-	=1-	=1-	=1-	=1-
I	4BB-	4F	4c	4f	4a
IVb	4EE-	4D	8F	4f	4b-
.	.	.	8G	.	.
iii	4DD	4AA	4A	4e	4cc
vi7	4GG	4D	4A	8f	4cc
.	.	.	.	8e	.
=2	=2	=2	=2	=2	=2
ii	4CC	4GG	4B-	8d	4b-
.	.	.	.	8e	.
I	4BB-	4FF	4c	4f	4a
V	4FF	4C	4c	4e	4g
V;	4FF;	4C;	4c;	4e;	4g;
=3	=3	=3	=3	=3	=3
I	4BB-	4FF	4c	4f	4a
ii	4CC	4GG	4B-	8e	4b-
.	.	.	.	8d	.
iii	4DD	4AA	8A	4c	4cc
.	.	.	8G	.	.
vi	4GG	8D	4F	4d	4a
.	.	8C	.	.	.
=4	=4	=4	=4	=4	=4
ii7b	4CC	4BB-	4F	4d	4.g
V	4FF	4C	4E	4c	.
.	.	.	.	.	8g
I;	2BB-;	2FF;	2A;	2c;	2f;
=:|!	=:|!	=:|!	=:|!	=:|!	=:|!
*>B	*>B	*>B	*>B	*>B	*>B
=5	=5	=5	=5	=5	=5
V	4FF	4C	4c	4e	4g
viiob/ii	4BB	4AA	4C	4f#	4a
ii	4CC	8GG	4D	4g	4b-
.	.	8AA	.	.	.
iib	4CC	8BB-	4G	4d	4b-
.	.	8C	.	.	.
=6	=6	=6	=6	=6	=6
V/ii	4GG	4D	8G	4d	4.a
.	.	.	8E	.	.
V7/ii	4GG	4DD	4F#	8c	.
.	.	.	.	8B-	8g
ii;	2CC;	2GG;	2D;	2B-;	2g;
!!linebreak: 2
=7	=7	=7	=7	=7	=7
ii	4CC	4G	4G	4d	4b-
V7/IV	4BB-	8F	4A	4f	4cc
.	.	8E-	.	.	.
IVb	4EE-	8D	4B-	4f	4dd
.	.	8C	.	.	.
IV	4EE-	4BB-	4B-	4f	4dd
=8	=8	=8	=8	=8	=8
V/IV	4BB-	4F	8B-	4f	4cc
.	.	.	8G	.	.
V7/IV	4BB-	4FF	4A	8f	8.cc
.	.	.	.	8e-	.
.	.	.	.	.	16b-
IV;	2EE-;	2BB-;	2F;	2d;	2b-;
=9	=9	=9	=9	=9	=9
vi	4GG	4D	4F	4d	4a
IV	4EE-	8C	4F	4d	4b-
.	.	8BB-	.	.	.
Vb/IV	4BB-	4AA	8F	4c	4cc
.	.	.	8E-	.	.
IV	4EE-	4BB-	4D	4B-	4f
=10	=10	=10	=10	=10	=10
V7b	4FF	4EE	4G	4c	4b-
I	4BB-	4FF	4F	4c	4a
V	4FF	4C	4E	4c	4g
V;	4FF;	4C;	4E;	4c;	4g;
=11	=11	=11	=11	=11	=11
I	4BB-	4F	4F	4c	4a
IVb	4EE-	8E	4F	4d	4b-
.	.	8D	.	.	.
V	4FF	8E	4G	4c	4cc
.	.	8C	.	.	.
I	4BB-	4F	4F	4c	4a
=12	=12	=12	=12	=12	=12
ii7b	4CC	4BB-	4F	4d	4g
V	4FF	4C	4E	4c	4g
I	4BB-	4FF	4A	4c	4f
I;	4BB-;	4FF;	4A;	4c;	4f;
==	==	==	==	==	==
*-	*-	*-	*-	*-	*-
!!chor2scor: -l 2 -s 0.6 -o %b.pmx
!!!YEC: Copyright 1994, David Huron
!!!YEC: Changes/Additions 2001 by Craig Stuart Sapp
!!!YEN: United States of America
!!!SMA: 371 Bach Chorales, edited by Ludwig Erk, C.F. Peters
!!!PDT: 1850, 1865
!!!ONB: Harmony and Root analysis done manually
